packages/core/src/svgs/msol.svg

<svg width="24" height="24" viewBox="0 0 24 24" fill="none" xmlns="http://www.w3.org/2000/svg">
<g clip-path="url(#clip0_31_14287)">
<path d="M0 0H24V24H0V0Z" fill="#C8ECE1"/>
<path fill-rule="evenodd" clip-rule="evenodd" d="M7.28572 6.85693H19.2857L16.2857 9.42836H4.7143L7.28572 6.85693ZM7.28701 14.5712H18.8572L16.2952 17.1426H4.7143L7.28701 14.5712ZM16.2857 10.7141L4.71387 10.7166L7.28701 13.2855H18.8572L16.2857 10.7141Z" fill="#308D8A"/>
</g>
<defs>
<clipPath id="clip0_31_14287">
<rect width="24" height="24" fill="white"/>
</clipPath>
</defs>
</svg>

<svg xmlns="http://www.w3.org/2000/svg" width="24" height="24" fill="none" viewBox="0 0 24 24"><g clip-path="url(#a)"><path fill="#C8ECE1" d="M0 0h24v24H0z"/><path fill="#308D8A" fill-rule="evenodd" d="M7.286 6.857h12l-3 2.571H4.714zm.001 7.714h11.57l-2.562 2.572H4.715zm8.999-3.857-11.572.003 2.573 2.569h11.57z" clip-rule="evenodd"/></g><defs><clipPath id="a"><path fill="#fff" d="M0 0h24v24H0z"/></clipPath></defs></svg>
